!!!OTL: Geschwind zum Doktor (115), S. 272
!!!id: T0279
**kern
*clefG2
*k[]
*G:
{8g
=1
8g
4.g
=2yy
8a
=3
4b
4dd
=4
4a
8b
8a
=5
4g}
4r
=6
{4.b
8cc
=7
4dd
4dd
=8
8ee
8dd
8cc
8b
=9
4cc}
=10
{8a
8b
=11
4cc
8cc
8cc
=12
8dd
8cc
8b
8a
=13
4b}
=14
{8g
8a
=15
4b
8dd
8dd
=16
4a
8b
8a
=17
4g}
4r
==
*-
!!!minrhy: 8
!!!meters: 2/4 ]  ZZ[4
!!!cut: Geschwind zum Doktor (115), S. 272
!!!reg: Luxemburg
!!!trd: Singendes Volk, Esch-Alzette 1937 posth.
!!!rhy1:   X_.X  X_X_  X_XX  X_0_
!!!rhy2: X_.X  X_X_  XXXX  X_
!!!key: T0279  08  G 2/4 ]  ZZ[4
!!!mod: SECHSTONSKALA DUR ?]  AMBITUS[6
!!!kad: 1431
!!!akz: 1321_3564_453_321_
!!!fot: 'a__b__c__d__
!!!for: 'a__b__c__d__
!!!fok: '^__^a_^a_^__
!! PHRAS[GEMISCHTTAKTIG]
!!!fkt: Liebeslieder
!!!bem: Heffingen, fff Maria Berchem, um 1904
!! THILL, Mathias:
!! PR[20] 2K[5] 2G[4] 3K[5] 3G[5] 4A[4] 4Ü[0] 5A[4] 6K[0] 6G[4]
!! 7K[0] 7G[0] 8A[0] MEHR[0] SI[31] ABS[55] SR[9] SP[22]
!! ST[15] 2k[13] 2g[25] 3k[4] 3g[5] 4d[2] 4ü[0] 5d[0] 6k[0] 6g[0]
!! 7k[0] 7g[0] 8d[0] mehr[0] si[49] dm[-18] sr[38] sp[11]
!! 1F[33] 2F[47] 3F[13] 4F[0] LF[0] 2P[7] 3P[0] 4P[0] TRI[0] DF[4] AB[60]
!! TF[0] U3K[0] U3[0] U4[0] U4Ü[0] U5[0] U6K[0] U6[0] U7K[0] U7[0]
!! N1[7] N2K[0] N2[5] N3K[0] N3[20] N4[16] N4Ü[0] N5[23] N6K[0] N6[11]
!!!n7k: 0] N7[4] O1[11] O2K[0] O2[4] O3K[0] O3[0] HÖ[0
